public/favicon/icon.svg

<?xml version="1.0" encoding="UTF-8" standalone="no"?>
<svg
   version="1.1"
   width="192"
   height="176.8819"
   style="clip-rule:evenodd;fill-rule:evenodd;image-rendering:optimizeQuality;shape-rendering:geometricPrecision;text-rendering:geometricPrecision"
   id="svg2"
   xmlns="http://www.w3.org/2000/svg"
   xmlns:svg="http://www.w3.org/2000/svg">
  <defs
     id="defs2" />
  <g
     id="g3"
     transform="matrix(0.8112157,0,0,0.8112157,42.33071,40.314961)">
    <g
       id="g1">
      <path
         style="opacity:0.715"
         fill="#e5e5e5"
         d="m 49.5,-0.5 c 9.6667,0 19.3333,0 29,0 10.0915,24.4359 20.0915,48.9359 30,73.5 -0.145,0.772 -0.478,1.4387 -1,2 -17.4902,6.8527 -35.4902,11.0194 -54,12.5 -14.8286,0.0702 -29.1619,2.7369 -43,8 C 10.1667,95 9.83333,94.5 9.5,94 22.7105,62.4165 36.0438,30.9165 49.5,-0.5 Z m 14,38 c 5.1314,11.2826 9.4648,22.9493 13,35 -8.6667,0 -17.3333,0 -26,0 4.0485,-11.7653 8.3819,-23.432 13,-35 z"
         id="path1" />
    </g>
    <g
       id="g2"
       transform="translate(0,2)">
      <path
         style="opacity:0.707"
         fill="#e5e5e5"
         d="m 127.5,119.5 c 0,1 0,2 0,3 -10.667,0 -21.333,0 -32,0 -2.7974,-7.722 -5.7974,-15.388 -9,-23 -15.3189,-0.9994 -30.6522,-1.3327 -46,-1 -2.6049,8.148 -5.6049,16.148 -9,24 -10.6667,0 -21.3333,0 -32,0 0,-1.333 0,-2.667 0,-4 2.72495,-5.122 5.22495,-10.455 7.5,-16 5.979,-4.1116 12.479,-7.2783 19.5,-9.5 9.0539,-2.2614 18.0539,-4.0947 27,-5.5 18.8355,-0.6391 37.1688,-3.9724 55,-10 6.366,14.0597 12.699,28.06 19,42 z"
         id="path2" />
    </g>
    <rect
       style="fill:none"
       id="rect2"
       width="236.68181"
       height="218.04544"
       x="-52.18182"
       y="-49.696968" />
  </g>
</svg>

<?xml version="1.0" encoding="UTF-8"?>
<!DOCTYPE svg PUBLIC "-//W3C//DTD SVG 1.1//EN" "http://www.w3.org/Graphics/SVG/1.1/DTD/svg11.dtd">
<svg xmlns="http://www.w3.org/2000/svg" version="1.1" width="128px" height="123px" style="shape-rendering:geometricPrecision; text-rendering:geometricPrecision; image-rendering:optimizeQuality; fill-rule:evenodd; clip-rule:evenodd" xmlns:xlink="http://www.w3.org/1999/xlink">
<g><path style="opacity:0.715" fill="#e5e5e5" d="M 49.5,-0.5 C 59.1667,-0.5 68.8333,-0.5 78.5,-0.5C 88.5915,23.9359 98.5915,48.4359 108.5,73C 108.355,73.772 108.022,74.4387 107.5,75C 90.0098,81.8527 72.0098,86.0194 53.5,87.5C 38.6714,87.5702 24.3381,90.2369 10.5,95.5C 10.1667,95 9.83333,94.5 9.5,94C 22.7105,62.4165 36.0438,30.9165 49.5,-0.5 Z M 63.5,37.5 C 68.6314,48.7826 72.9648,60.4493 76.5,72.5C 67.8333,72.5 59.1667,72.5 50.5,72.5C 54.5485,60.7347 58.8819,49.068 63.5,37.5 Z"/></g>
<g><path style="opacity:0.707" fill="#e5e5e5" d="M 127.5,119.5 C 127.5,120.5 127.5,121.5 127.5,122.5C 116.833,122.5 106.167,122.5 95.5,122.5C 92.7026,114.778 89.7026,107.112 86.5,99.5C 71.1811,98.5006 55.8478,98.1673 40.5,98.5C 37.8951,106.648 34.8951,114.648 31.5,122.5C 20.8333,122.5 10.1667,122.5 -0.5,122.5C -0.5,121.167 -0.5,119.833 -0.5,118.5C 2.22495,113.378 4.72495,108.045 7,102.5C 12.979,98.3884 19.479,95.2217 26.5,93C 35.5539,90.7386 44.5539,88.9053 53.5,87.5C 72.3355,86.8609 90.6688,83.5276 108.5,77.5C 114.866,91.5597 121.199,105.56 127.5,119.5 Z"/></g>
</svg>
